_site/images/resources/data-escrow.svg

<svg height="90" viewBox="0 0 90 90" width="90" xmlns="http://www.w3.org/2000/svg"><g fill="none" fill-rule="evenodd"><rect fill="#127d7a" height="90" rx="9" width="90"/><path d="m70.25 59.1666667h-2.75v-12.8333334h-6.5853333c-.2773198-.776357-.8883096-1.3873468-1.6646667-1.6646666v-4.752h4.5833333v-22.9166667h-11v22.9166667h4.5833334v4.752c-.7763571.2773198-1.3873469.8883096-1.6646667 1.6646666h-7.6706667c-.2773198-.776357-.8883096-1.3873468-1.6646666-1.6646666v-4.752h4.5833333v-22.9166667h-11v22.9166667h4.5833333v4.752c-.776357.2773198-1.3873468.8883096-1.6646666 1.6646666h-7.6706667c-.2773198-.776357-.8883096-1.3873468-1.6646667-1.6646666v-4.752h4.5833334v-22.9166667h-11v22.9166667h4.5833333v4.752c-.7763571.2773198-1.3873469.8883096-1.6646667 1.6646666h-6.5853333v9.1666667h-5.5v16.5h12.8333333v-10.4628333l-5.5-5.5v-7.8705h4.752c.3826271 1.0982854 1.4183053 1.8342 2.5813334 1.8342s2.1987062-.7359146 2.5813333-1.8342h7.6706667c.3826271 1.0982854 1.4183052 1.8342 2.5813333 1.8342s2.1987062-.7359146 2.5813333-1.8342h7.6706667c.3826271 1.0982854 1.4183052 1.8342 2.5813333 1.8342s2.1987063-.7359146 2.5813334-1.8342h4.752v11h-.20075l-.396-1.5849167c-.3065955-1.223892-1.4067067-2.0821374-2.6684167-2.08175h-4.4696667c-1.2619767-.0002822-2.362177.8584107-2.6684166 2.0826667l-.56925 2.2788333-.0275 12.1385h18.3333333v-10.0833333c0-1.5187831-1.2312169-2.75-2.75-2.75zm-15.5833333-40.3333334h7.3333333v19.25h-7.3333333zm-12.8333334 0h7.3333334v19.25h-7.3333334zm-12.8333333 0h7.3333333v19.25h-7.3333333zm-3.6666667 39.7961667 2.3705 2.3705h-2.3705zm-5.5 11.5371667v-12.8333334h3.6666667v5.5h5.5v7.3333334zm12.8333334-22c-.5062611 0-.9166667-.4104057-.9166667-.9166667s.4104056-.9166667.9166667-.9166667c.506261 0 .9166666.4104057.9166666.9166667s-.4104056.9166667-.9166666.9166667zm12.8333333 0c-.506261 0-.9166667-.4104057-.9166667-.9166667s.4104057-.9166667.9166667-.9166667.9166667.4104057.9166667.9166667-.4104057.9166667-.9166667.9166667zm12.8333333 0c-.506261 0-.9166666-.4104057-.9166666-.9166667s.4104056-.9166667.9166666-.9166667c.5062611 0 .9166667.4104057.9166667.9166667s-.4104056.9166667-.9166667.9166667zm-.4015 9.1666666h4.4696667c.4207978-.0004097.7878296.2857316.8900833.6939167l.2841667 1.1394167h-6.8181667l.2841667-1.1385c.1018976-.4085492.4690186-.6951381.8900833-.6948334zm13.2348334 12.8333334h-14.6666667v-9.1666667h13.75c.506261 0 .9166667.4104056.9166667.9166667z" fill="#fff" fill-rule="nonzero"/></g></svg>

<?xml version="1.0" encoding="UTF-8"?>
<svg width="90px" height="90px" viewBox="0 0 90 90" version="1.1" xmlns="http://www.w3.org/2000/svg" xmlns:xlink="http://www.w3.org/1999/xlink">
    <!-- Generator: Sketch 52.6 (67491) - http://www.bohemiancoding.com/sketch -->
    <title>Group 26</title>
    <desc>Created with Sketch.</desc>
    <g id="Website" stroke="none" stroke-width="1" fill="none" fill-rule="evenodd">
        <g id="19--Resources" transform="translate(-770.000000, -3778.000000)">
            <g id="Group-6" transform="translate(285.000000, 3756.000000)">
                <g id="Group-26" transform="translate(485.000000, 22.000000)">
                    <rect id="Rectangle" fill="#127D7A" x="0" y="0" width="90" height="90" rx="9"></rect>
                    <path d="M70.25,59.1666667 L67.5,59.1666667 L67.5,46.3333333 L60.9146667,46.3333333 C60.6373469,45.5569763 60.0263571,44.9459865 59.25,44.6686667 L59.25,39.9166667 L63.8333333,39.9166667 L63.8333333,17 L52.8333333,17 L52.8333333,39.9166667 L57.4166667,39.9166667 L57.4166667,44.6686667 C56.6403096,44.9459865 56.0293198,45.5569763 55.752,46.3333333 L48.0813333,46.3333333 C47.8040135,45.5569763 47.1930237,44.9459865 46.4166667,44.6686667 L46.4166667,39.9166667 L51,39.9166667 L51,17 L40,17 L40,39.9166667 L44.5833333,39.9166667 L44.5833333,44.6686667 C43.8069763,44.9459865 43.1959865,45.5569763 42.9186667,46.3333333 L35.248,46.3333333 C34.9706802,45.5569763 34.3596904,44.9459865 33.5833333,44.6686667 L33.5833333,39.9166667 L38.1666667,39.9166667 L38.1666667,17 L27.1666667,17 L27.1666667,39.9166667 L31.75,39.9166667 L31.75,44.6686667 C30.9736429,44.9459865 30.3626531,45.5569763 30.0853333,46.3333333 L23.5,46.3333333 L23.5,55.5 L18,55.5 L18,72 L30.8333333,72 L30.8333333,61.5371667 L25.3333333,56.0371667 L25.3333333,48.1666667 L30.0853333,48.1666667 C30.4679604,49.2649521 31.5036386,50.0008667 32.6666667,50.0008667 C33.8296948,50.0008667 34.8653729,49.2649521 35.248,48.1666667 L42.9186667,48.1666667 C43.3012938,49.2649521 44.3369719,50.0008667 45.5,50.0008667 C46.6630281,50.0008667 47.6987062,49.2649521 48.0813333,48.1666667 L55.752,48.1666667 C56.1346271,49.2649521 57.1703052,50.0008667 58.3333333,50.0008667 C59.4963614,50.0008667 60.5320396,49.2649521 60.9146667,48.1666667 L65.6666667,48.1666667 L65.6666667,59.1666667 L65.4659167,59.1666667 L65.0699167,57.58175 C64.7633212,56.357858 63.66321,55.4996126 62.4015,55.5 L57.9318333,55.5 C56.6698566,55.4997178 55.5696563,56.3584107 55.2634167,57.5826667 L54.6941667,59.8615 L54.6666667,72 L73,72 L73,61.9166667 C73,60.3978836 71.7687831,59.1666667 70.25,59.1666667 Z M54.6666667,18.8333333 L62,18.8333333 L62,38.0833333 L54.6666667,38.0833333 L54.6666667,18.8333333 Z M41.8333333,18.8333333 L49.1666667,18.8333333 L49.1666667,38.0833333 L41.8333333,38.0833333 L41.8333333,18.8333333 Z M29,18.8333333 L36.3333333,18.8333333 L36.3333333,38.0833333 L29,38.0833333 L29,18.8333333 Z M25.3333333,58.6295 L27.7038333,61 L25.3333333,61 L25.3333333,58.6295 Z M19.8333333,70.1666667 L19.8333333,57.3333333 L23.5,57.3333333 L23.5,62.8333333 L29,62.8333333 L29,70.1666667 L19.8333333,70.1666667 Z M32.6666667,48.1666667 C32.1604056,48.1666667 31.75,47.756261 31.75,47.25 C31.75,46.743739 32.1604056,46.3333333 32.6666667,46.3333333 C33.1729277,46.3333333 33.5833333,46.743739 33.5833333,47.25 C33.5833333,47.756261 33.1729277,48.1666667 32.6666667,48.1666667 Z M45.5,48.1666667 C44.993739,48.1666667 44.5833333,47.756261 44.5833333,47.25 C44.5833333,46.743739 44.993739,46.3333333 45.5,46.3333333 C46.006261,46.3333333 46.4166667,46.743739 46.4166667,47.25 C46.4166667,47.756261 46.006261,48.1666667 45.5,48.1666667 Z M58.3333333,48.1666667 C57.8270723,48.1666667 57.4166667,47.756261 57.4166667,47.25 C57.4166667,46.743739 57.8270723,46.3333333 58.3333333,46.3333333 C58.8395944,46.3333333 59.25,46.743739 59.25,47.25 C59.25,47.756261 58.8395944,48.1666667 58.3333333,48.1666667 Z M57.9318333,57.3333333 L62.4015,57.3333333 C62.8222978,57.3329236 63.1893296,57.6190649 63.2915833,58.02725 L63.57575,59.1666667 L56.7575833,59.1666667 L57.04175,58.0281667 C57.1436476,57.6196175 57.5107686,57.3330286 57.9318333,57.3333333 Z M71.1666667,70.1666667 L56.5,70.1666667 L56.5,61 L70.25,61 C70.756261,61 71.1666667,61.4104056 71.1666667,61.9166667 L71.1666667,70.1666667 Z" id="Shape" fill="#FFFFFF" fill-rule="nonzero"></path>
                </g>
            </g>
        </g>
    </g>
</svg>
